svg/N_Arrows/35.svg

<?xml version="1.0" encoding="UTF-8" standalone="no"?>
<!-- Created with Inkscape (http://www.inkscape.org/) -->
<svg
   xmlns:dc="http://purl.org/dc/elements/1.1/"
   xmlns:cc="http://web.resource.org/cc/"
   xmlns:rdf="http://www.w3.org/1999/02/22-rdf-syntax-ns#"
   xmlns:svg="http://www.w3.org/2000/svg"
   xmlns="http://www.w3.org/2000/svg"
   xmlns:sodipodi="http://sodipodi.sourceforge.net/DTD/sodipodi-0.dtd"
   xmlns:inkscape="http://www.inkscape.org/namespaces/inkscape"
   width="744.09448819"
   height="1052.3622047"
   id="svg2"
   sodipodi:version="0.32"
   inkscape:version="0.44.1"
   sodipodi:docbase="F:\QGIS_N_ARROWS\TOT"
   sodipodi:docname="FINALE1.svg"
   inkscape:export-filename="F:\QGIS_N_ARROWS\TOT\FINALE1.png"
   inkscape:export-xdpi="300"
   inkscape:export-ydpi="300">
  <defs
     id="defs4" />
  <sodipodi:namedview
     id="base"
     pagecolor="#ffffff"
     bordercolor="#666666"
     borderopacity="1.0"
     inkscape:pageopacity="0.0"
     inkscape:pageshadow="2"
     inkscape:zoom="0.49497475"
     inkscape:cx="375"
     inkscape:cy="687.08823"
     inkscape:document-units="px"
     inkscape:current-layer="layer1"
     inkscape:window-width="1280"
     inkscape:window-height="744"
     inkscape:window-x="-4"
     inkscape:window-y="-4" />
  <metadata
     id="metadata7">
    <rdf:RDF>
      <cc:Work
         rdf:about="">
        <dc:format>image/svg+xml</dc:format>
        <dc:type
           rdf:resource="http://purl.org/dc/dcmitype/StillImage" />
      </cc:Work>
    </rdf:RDF>
  </metadata>
  <g
     inkscape:label="Livello 1"
     inkscape:groupmode="layer"
     id="layer1">
    <g
       id="g2329">
      <g
         transform="translate(3.0959,-85.0878)"
         inkscape:label="Livello 1"
         id="g2001">
        <flowRoot
           xml:space="preserve"
           id="flowRoot5601"
           style="font-size:56px;font-family:Arial Black"
           transform="translate(-63.48761,108.459)"><flowRegion
             id="flowRegion5603"><rect
               id="rect5605"
               width="68.571426"
               height="74.285713"
               x="321.42856"
               y="270.93362"
               style="font-size:56px;font-family:Arial Black" /></flowRegion><flowPara
             id="flowPara5607">N</flowPara></flowRoot>        <flowRoot
           xml:space="preserve"
           id="flowRoot5613"
           style="font-size:56px;font-family:Arial Black"
           transform="translate(-59.74609,510.4)"><flowRegion
             id="flowRegion5615"><rect
               id="rect5617"
               width="68.571426"
               height="74.285713"
               x="321.42856"
               y="270.93362"
               style="font-size:56px;font-family:Arial Black" /></flowRegion><flowPara
             id="flowPara5619">S</flowPara></flowRoot>        <flowRoot
           xml:space="preserve"
           id="flowRoot5621"
           style="font-size:56px;font-family:Arial Black"
           transform="translate(-276.4708,304.7164)"><flowRegion
             id="flowRegion5623"><rect
               id="rect5625"
               width="68.571426"
               height="74.285713"
               x="321.42856"
               y="270.93362"
               style="font-size:56px;font-family:Arial Black" /></flowRegion><flowPara
             id="flowPara5627">W</flowPara></flowRoot>        <flowRoot
           xml:space="preserve"
           id="flowRoot5629"
           style="font-size:56px;font-family:Arial Black"
           transform="translate(138.941,316.7704)"><flowRegion
             id="flowRegion5631"><rect
               id="rect5633"
               width="68.571426"
               height="74.285713"
               x="321.42856"
               y="270.93362"
               style="font-size:56px;font-family:Arial Black" /></flowRegion><flowPara
             id="flowPara5635">E</flowPara></flowRoot>        <path
           sodipodi:type="arc"
           style="opacity:0.97000002;fill:none;fill-opacity:1;stroke:black;stroke-width:14.19999981;stroke-linejoin:round;stroke-miterlimit:4;stroke-dasharray:none;stroke-opacity:1"
           id="path2031"
           sodipodi:cx="280.71429"
           sodipodi:cy="608.79077"
           sodipodi:rx="130.71428"
           sodipodi:ry="130.71428"
           d="M 411.42857 608.79077 A 130.71428 130.71428 0 1 1  150.00002,608.79077 A 130.71428 130.71428 0 1 1  411.42857 608.79077 z"
           transform="translate(0,0.178571)" />
        <g
           id="g4708"
           transform="matrix(1.922619,0,0,4.383232,-399.5132,-1999.594)">
          <g
             id="g6484">
            <path
               sodipodi:nodetypes="cccc"
               style="fill:black;fill-opacity:1;fill-rule:evenodd;stroke:black;stroke-width:0;stroke-linecap:butt;stroke-linejoin:miter;stroke-miterlimit:4;stroke-dasharray:none;stroke-opacity:1"
               d="M 353.66649,564.0395 L 353.66664,553.75846 L 363.09041,564.0395 L 353.66649,564.0395 z "
               id="path4710" />
            <path
               sodipodi:nodetypes="ccccc"
               style="fill:none;fill-rule:evenodd;stroke:black;stroke-width:0.17066273;stroke-linecap:butt;stroke-linejoin:miter;stroke-miterlimit:0.89999998;stroke-dasharray:none;stroke-opacity:1"
               d="M 353.54449,563.96907 L 353.76443,553.91206 L 352.03253,555.77243 L 344.17746,563.96907 L 353.54449,563.96907 z "
               id="path4712" />
          </g>
        </g>
        <g
           id="g6512"
           transform="matrix(0,1.922619,-4.383232,0,2888.717,-63.9146)">
          <g
             id="g6514">
            <path
               sodipodi:nodetypes="cccc"
               style="fill:black;fill-opacity:1;fill-rule:evenodd;stroke:black;stroke-width:0;stroke-linecap:butt;stroke-linejoin:miter;stroke-miterlimit:4;stroke-dasharray:none;stroke-opacity:1"
               d="M 353.66649,564.0395 L 353.66664,553.75846 L 363.09041,564.0395 L 353.66649,564.0395 z "
               id="path6516" />
            <path
               sodipodi:nodetypes="ccccc"
               style="fill:none;fill-rule:evenodd;stroke:black;stroke-width:0.17066273;stroke-linecap:butt;stroke-linejoin:miter;stroke-miterlimit:0.89999998;stroke-dasharray:none;stroke-opacity:1"
               d="M 353.54449,563.96907 L 353.76443,553.91206 L 352.03253,555.77243 L 344.17746,563.96907 L 353.54449,563.96907 z "
               id="path6518" />
          </g>
        </g>
        <g
           id="g6520"
           transform="matrix(0,-1.922619,4.383232,0,-2325.866,1284.001)">
          <g
             id="g6522">
            <path
               sodipodi:nodetypes="cccc"
               style="fill:black;fill-opacity:1;fill-rule:evenodd;stroke:black;stroke-width:0;stroke-linecap:butt;stroke-linejoin:miter;stroke-miterlimit:4;stroke-dasharray:none;stroke-opacity:1"
               d="M 353.66649,564.0395 L 353.66664,553.75846 L 363.09041,564.0395 L 353.66649,564.0395 z "
               id="path6524" />
            <path
               sodipodi:nodetypes="ccccc"
               style="fill:none;fill-rule:evenodd;stroke:black;stroke-width:0.17066273;stroke-linecap:butt;stroke-linejoin:miter;stroke-miterlimit:0.89999998;stroke-dasharray:none;stroke-opacity:1"
               d="M 353.54449,563.96907 L 353.76443,553.91206 L 352.03253,555.77243 L 344.17746,563.96907 L 353.54449,563.96907 z "
               id="path6526" />
          </g>
        </g>
        <g
           id="g6528"
           transform="matrix(-1.922619,0,0,-4.383232,960.4984,3212.826)">
          <g
             id="g6530">
            <path
               sodipodi:nodetypes="cccc"
               style="fill:black;fill-opacity:1;fill-rule:evenodd;stroke:black;stroke-width:0;stroke-linecap:butt;stroke-linejoin:miter;stroke-miterlimit:4;stroke-dasharray:none;stroke-opacity:1"
               d="M 353.66649,564.0395 L 353.66664,553.75846 L 363.09041,564.0395 L 353.66649,564.0395 z "
               id="path6532" />
            <path
               sodipodi:nodetypes="ccccc"
               style="fill:none;fill-rule:evenodd;stroke:black;stroke-width:0.17066273;stroke-linecap:butt;stroke-linejoin:miter;stroke-miterlimit:0.89999998;stroke-dasharray:none;stroke-opacity:1"
               d="M 353.54449,563.96907 L 353.76443,553.91206 L 352.03253,555.77243 L 344.17746,563.96907 L 353.54449,563.96907 z "
               id="path6534" />
          </g>
        </g>
      </g>
      <g
         transform="translate(-251.0229,142.9366)"
         id="g2301">
        <path
           style="fill:black;fill-opacity:1;fill-rule:evenodd;stroke-width:1px;stroke-linecap:butt;stroke-linejoin:miter;stroke-opacity:1"
           d="M 473.15698,395.53775 L 497.20946,395.53775 L 497.20946,373.22204 L 473.15698,373.22204 L 473.15698,395.53775 z "
           id="path2040" />
        <path
           style="fill:black;fill-opacity:1;fill-rule:evenodd;stroke-width:1px;stroke-linecap:butt;stroke-linejoin:miter;stroke-opacity:1"
           d="M 545.31443,417.85346 L 569.36692,417.85346 L 569.36692,395.53775 L 545.31443,395.53775 L 545.31443,417.85346 z "
           id="path2927" />
        <path
           style="fill:black;fill-opacity:1;fill-rule:evenodd;stroke-width:1px;stroke-linecap:butt;stroke-linejoin:miter;stroke-opacity:1"
           d="M 497.20946,417.85346 L 521.26195,417.85346 L 521.26195,395.53775 L 497.20946,395.53775 L 497.20946,417.85346 z "
           id="path2929" />
        <path
           style="fill:black;fill-opacity:1;fill-rule:evenodd;stroke-width:1px;stroke-linecap:butt;stroke-linejoin:miter;stroke-opacity:1"
           d="M 473.15698,350.90633 L 497.20946,350.90633 L 497.20946,328.59062 L 473.15698,328.59062 L 473.15698,350.90633 z "
           id="path2931" />
        <path
           style="fill:black;fill-opacity:1;fill-rule:evenodd;stroke-width:1px;stroke-linecap:butt;stroke-linejoin:miter;stroke-opacity:1"
           d="M 521.26195,350.90633 L 545.31443,350.90633 L 545.31443,328.59062 L 521.26195,328.59062 L 521.26195,350.90633 z "
           id="path2933" />
        <path
           style="fill:black;fill-opacity:1;fill-rule:evenodd;stroke-width:1px;stroke-linecap:butt;stroke-linejoin:miter;stroke-opacity:1"
           d="M 497.20946,373.22204 L 521.26195,373.22204 L 521.26195,350.90633 L 497.20946,350.90633 L 497.20946,373.22204 z "
           id="path2935" />
        <path
           style="fill:black;fill-opacity:1;fill-rule:evenodd;stroke-width:1px;stroke-linecap:butt;stroke-linejoin:miter;stroke-opacity:1"
           d="M 521.26195,395.53775 L 545.31443,395.53775 L 545.31443,373.22204 L 521.26195,373.22204 L 521.26195,395.53775 z "
           id="path2937" />
        <path
           style="fill:black;fill-opacity:1;fill-rule:evenodd;stroke-width:1px;stroke-linecap:butt;stroke-linejoin:miter;stroke-opacity:1"
           d="M 545.31443,462.48488 L 569.36692,462.48488 L 569.36692,440.16917 L 545.31443,440.16917 L 545.31443,462.48488 z "
           id="path2939" />
        <path
           style="fill:black;fill-opacity:1;fill-rule:evenodd;stroke-width:1px;stroke-linecap:butt;stroke-linejoin:miter;stroke-opacity:1"
           d="M 569.36692,440.16917 L 593.4194,440.16917 L 593.4194,417.85346 L 569.36692,417.85346 L 569.36692,440.16917 z "
           id="path2941" />
        <path
           style="fill:black;fill-opacity:1;fill-rule:evenodd;stroke-width:1px;stroke-linecap:butt;stroke-linejoin:miter;stroke-opacity:1"
           d="M 569.36692,350.90633 L 593.4194,350.90633 L 593.4194,328.59062 L 569.36692,328.59062 L 569.36692,350.90633 z "
           id="path2943" />
        <path
           style="fill:black;fill-opacity:1;fill-rule:evenodd;stroke-width:1px;stroke-linecap:butt;stroke-linejoin:miter;stroke-opacity:1"
           d="M 545.31443,373.22204 L 569.36692,373.22204 L 569.36692,350.90633 L 545.31443,350.90633 L 545.31443,373.22204 z "
           id="path2945" />
        <path
           style="fill:black;fill-opacity:1;fill-rule:evenodd;stroke-width:1px;stroke-linecap:butt;stroke-linejoin:miter;stroke-opacity:1"
           d="M 569.36692,395.53775 L 593.4194,395.53775 L 593.4194,373.22204 L 569.36692,373.22204 L 569.36692,395.53775 z "
           id="path2947" />
        <path
           style="fill:black;fill-opacity:1;fill-rule:evenodd;stroke-width:1px;stroke-linecap:butt;stroke-linejoin:miter;stroke-opacity:1"
           d="M 521.26195,440.16917 L 545.31443,440.16917 L 545.31443,417.85346 L 521.26195,417.85346 L 521.26195,440.16917 z "
           id="path2949" />
        <path
           style="fill:black;fill-opacity:1;fill-rule:evenodd;stroke-width:1px;stroke-linecap:butt;stroke-linejoin:miter;stroke-opacity:1"
           d="M 497.20946,462.48488 L 521.26195,462.48488 L 521.26195,440.16917 L 497.20946,440.16917 L 497.20946,462.48488 z "
           id="path2951" />
        <path
           style="fill:black;fill-opacity:1;fill-rule:evenodd;stroke-width:1px;stroke-linecap:butt;stroke-linejoin:miter;stroke-opacity:1"
           d="M 593.4194,373.22204 L 617.47189,373.22204 L 617.47189,350.90633 L 593.4194,350.90633 L 593.4194,373.22204 z "
           id="path2953" />
        <path
           style="fill:black;fill-opacity:1;fill-rule:evenodd;stroke-width:1px;stroke-linecap:butt;stroke-linejoin:miter;stroke-opacity:1"
           d="M 593.4194,417.85346 L 617.47189,417.85346 L 617.47189,395.53775 L 593.4194,395.53775 L 593.4194,417.85346 z "
           id="path2955" />
        <path
           style="fill:black;fill-opacity:1;fill-rule:evenodd;stroke-width:1px;stroke-linecap:butt;stroke-linejoin:miter;stroke-opacity:1"
           d="M 593.4194,462.48488 L 617.47189,462.48488 L 617.47189,440.16917 L 593.4194,440.16917 L 593.4194,462.48488 z "
           id="path2957" />
        <path
           style="fill:black;fill-opacity:1;fill-rule:evenodd;stroke-width:1px;stroke-linecap:butt;stroke-linejoin:miter;stroke-opacity:1"
           d="M 449.10449,373.22204 L 473.15698,373.22204 L 473.15698,350.90633 L 449.10449,350.90633 L 449.10449,373.22204 z "
           id="path2959" />
        <path
           style="fill:black;fill-opacity:1;fill-rule:evenodd;stroke-width:1px;stroke-linecap:butt;stroke-linejoin:miter;stroke-opacity:1"
           d="M 449.10449,417.85346 L 473.15698,417.85346 L 473.15698,395.53775 L 449.10449,395.53775 L 449.10449,417.85346 z "
           id="path2961" />
        <path
           style="fill:black;fill-opacity:1;fill-rule:evenodd;stroke-width:1px;stroke-linecap:butt;stroke-linejoin:miter;stroke-opacity:1"
           d="M 449.10449,462.48488 L 473.15698,462.48488 L 473.15698,440.16917 L 449.10449,440.16917 L 449.10449,462.48488 z "
           id="path2963" />
        <path
           style="fill:black;fill-opacity:1;fill-rule:evenodd;stroke-width:1px;stroke-linecap:butt;stroke-linejoin:miter;stroke-opacity:1"
           d="M 473.15698,440.16917 L 497.20946,440.16917 L 497.20946,417.85346 L 473.15698,417.85346 L 473.15698,440.16917 z "
           id="path2965" />
        <path
           style="fill:black;fill-opacity:1;fill-rule:evenodd;stroke-width:1px;stroke-linecap:butt;stroke-linejoin:miter;stroke-opacity:1"
           d="M 593.4194,328.59062 L 617.47189,328.59062 L 617.47189,306.27491 L 593.4194,306.27491 L 593.4194,328.59062 z "
           id="path2967" />
        <path
           style="fill:black;fill-opacity:1;fill-rule:evenodd;stroke-width:1px;stroke-linecap:butt;stroke-linejoin:miter;stroke-opacity:1"
           d="M 545.31443,328.59062 L 569.36692,328.59062 L 569.36692,306.27491 L 545.31443,306.27491 L 545.31443,328.59062 z "
           id="path2969" />
        <path
           style="fill:black;fill-opacity:1;fill-rule:evenodd;stroke-width:1px;stroke-linecap:butt;stroke-linejoin:miter;stroke-opacity:1"
           d="M 497.20946,328.59062 L 521.26195,328.59062 L 521.26195,306.27491 L 497.20946,306.27491 L 497.20946,328.59062 z "
           id="path2971" />
        <path
           style="fill:black;fill-opacity:1;fill-rule:evenodd;stroke-width:1px;stroke-linecap:butt;stroke-linejoin:miter;stroke-opacity:1"
           d="M 449.10449,328.59062 L 473.15698,328.59062 L 473.15698,306.27491 L 449.10449,306.27491 L 449.10449,328.59062 z "
           id="path2973" />
        <rect
           style="opacity:0.97000002;fill:none;fill-opacity:1;stroke:black;stroke-width:9.14688969;stroke-linecap:square;stroke-linejoin:miter;stroke-miterlimit:4;stroke-dasharray:none;stroke-opacity:1"
           id="rect3002"
           width="174.07446"
           height="163.09892"
           x="446.40341"
           y="302.03339" />
      </g>
    </g>
  </g>
</svg>

<svg xmlns="http://www.w3.org/2000/svg" viewBox="0 0 744.09 1052.36" xmlns:xlink="http://www.w3.org/1999/xlink"><defs><path id="0" d="m353.67 564.04v-10.281l9.424 10.281h-9.424" fill-rule="evenodd"/><path id="1" d="m353.54 563.97l.22-10.06-1.732 1.86-7.855 8.197h9.367z" stroke-width=".171" stroke="#000" stroke-miterlimit=".9" fill-rule="evenodd" fill="none"/><path id="2" d="m321.43 270.93h68.57v74.28h-68.57z"/></defs><g transform="translate(3.096-85.09)"><g font-family="Arial Black" font-size="56"><flowRoot transform="translate(-63.49 108.46)"><flowRegion><path d="m321.43 270.93h68.57v74.28h-68.57z"/></flowRegion><flowPara>N</flowPara></flowRoot><flowRoot transform="translate(-59.746 510.4)"><flowRegion><use xlink:href="#2"/></flowRegion><flowPara>S</flowPara></flowRoot><flowRoot transform="translate(-276.47 304.72)"><flowRegion><use xlink:href="#2"/></flowRegion><flowPara>W</flowPara></flowRoot><flowRoot transform="translate(138.94 316.77)"><flowRegion><use xlink:href="#2"/></flowRegion><flowPara>E</flowPara></flowRoot></g><path d="M411.42857 608.79077A130.71428 130.71428 0 1 1 150.00002 608.79077 130.71428 130.71428 0 1 1 411.42857 608.79077z" transform="translate(0 .179)" opacity=".97" fill="none" stroke="#000" stroke-linejoin="round" stroke-width="14.2"/><g transform="matrix(1.92262 0 0 4.38323-399.51-1999.59)"><use xlink:href="#0"/><path d="m353.54 563.97l.22-10.06-1.732 1.86-7.855 8.197h9.367z" fill="none" fill-rule="evenodd" stroke="#000" stroke-width=".171" stroke-miterlimit=".9"/></g><g transform="matrix(0 1.92262-4.38323 0 2888.72-63.915)"><use xlink:href="#0"/><use xlink:href="#1"/></g><g transform="matrix(0-1.92262 4.38323 0-2325.87 1284)"><use xlink:href="#0"/><use xlink:href="#1"/></g><g transform="matrix(-1.92262 0 0-4.38323 960.5 3212.83)"><use xlink:href="#0"/><use xlink:href="#1"/></g></g><g transform="translate(-251.02 142.94)"><g fill-rule="evenodd"><path d="m473.16 395.54h24.05v-22.316h-24.05v22.316"/><path d="m545.31 417.85h24.05v-22.316h-24.05v22.316"/><path d="m497.21 417.85h24.05v-22.316h-24.05v22.316"/><path d="m473.16 350.91h24.05v-22.316h-24.05v22.316"/><path d="m521.26 350.91h24.05v-22.316h-24.05v22.316"/><path d="m497.21 373.22h24.05v-22.316h-24.05v22.316"/><path d="m521.26 395.54h24.05v-22.316h-24.05v22.316"/><path d="m545.31 462.48h24.05v-22.316h-24.05v22.316"/><path d="m569.37 440.17h24.05v-22.316h-24.05v22.316"/><path d="m569.37 350.91h24.05v-22.316h-24.05v22.316"/><path d="m545.31 373.22h24.05v-22.316h-24.05v22.316"/><path d="m569.37 395.54h24.05v-22.316h-24.05v22.316"/><path d="m521.26 440.17h24.05v-22.316h-24.05v22.316"/><path d="m497.21 462.48h24.05v-22.316h-24.05v22.316"/><path d="m593.42 373.22h24.05v-22.316h-24.05v22.316"/><path d="m593.42 417.85h24.05v-22.316h-24.05v22.316"/><path d="m593.42 462.48h24.05v-22.316h-24.05v22.316"/><path d="m449.1 373.22h24.05v-22.316h-24.05v22.316"/><path d="m449.1 417.85h24.05v-22.316h-24.05v22.316"/><path d="m449.1 462.48h24.05v-22.316h-24.05v22.316"/><path d="m473.16 440.17h24.05v-22.316h-24.05v22.316"/><path d="m593.42 328.59h24.05v-22.316h-24.05v22.316"/><path d="m545.31 328.59h24.05v-22.316h-24.05v22.316"/><path d="m497.21 328.59h24.05v-22.316h-24.05v22.316"/><path d="m449.1 328.59h24.05v-22.316h-24.05v22.316"/></g><path opacity=".97" fill="none" stroke="#000" stroke-linecap="square" stroke-width="9.147" d="m446.4 302.03h174.07v163.1h-174.07z"/></g></svg>
